swiss/communes/0670.svg

<?xml version="1.0" encoding="UTF-8" standalone="no"?>
<svg
   xmlns:i="http://ns.adobe.com/AdobeIllustrator/10.0/"
   xmlns:dc="http://purl.org/dc/elements/1.1/"
   xmlns:cc="http://web.resource.org/cc/"
   xmlns:rdf="http://www.w3.org/1999/02/22-rdf-syntax-ns#"
   xmlns:svg="http://www.w3.org/2000/svg"
   xmlns="http://www.w3.org/2000/svg"
   xmlns:xlink="http://www.w3.org/1999/xlink"
   xmlns:sodipodi="http://sodipodi.sourceforge.net/DTD/sodipodi-0.dtd"
   xmlns:inkscape="http://www.inkscape.org/namespaces/inkscape"
   height="763"
   width="603"
   version="1.0"
   id="svg20"
   sodipodi:version="0.32"
   inkscape:version="0.44.1"
   sodipodi:docname="Neuenegg-coat of arms.svg"
   sodipodi:docbase="F:\MIS DOCUMENTOS\Mis imágenes\Encyclopédie\Escudos de Suiza">
  <metadata
     id="metadata31">
    <rdf:RDF>
      <cc:Work
         rdf:about="">
        <dc:format>image/svg+xml</dc:format>
        <dc:type
           rdf:resource="http://purl.org/dc/dcmitype/StillImage" />
        <dc:date>07-AUG-2006</dc:date>
        <dc:creator>
          <cc:Agent>
            <dc:title>Jérôme BLUM (wagner51)</dc:title>
          </cc:Agent>
        </dc:creator>
        <cc:license
           rdf:resource="http://creativecommons.org/licenses/GPL/2.0/" />
        <dc:coverage />
        <dc:description>Gabarit pour le Projet:Blasons de WIkipédia</dc:description>
        <dc:subject>
          <rdf:Bag>
            <rdf:li>blason suisse modèle gabarit projet blasons</rdf:li>
          </rdf:Bag>
        </dc:subject>
        <dc:language>fr</dc:language>
        <dc:title>Gabrit d'un blason suisse</dc:title>
      </cc:Work>
      <cc:License
         rdf:about="http://creativecommons.org/licenses/GPL/2.0/">
        <cc:permits
           rdf:resource="http://web.resource.org/cc/Reproduction" />
        <cc:permits
           rdf:resource="http://web.resource.org/cc/Distribution" />
        <cc:requires
           rdf:resource="http://web.resource.org/cc/Notice" />
        <cc:permits
           rdf:resource="http://web.resource.org/cc/DerivativeWorks" />
        <cc:requires
           rdf:resource="http://web.resource.org/cc/ShareAlike" />
        <cc:requires
           rdf:resource="http://web.resource.org/cc/SourceCode" />
      </cc:License>
    </rdf:RDF>
  </metadata>
  <defs
     id="defs29">
    <linearGradient
       id="linearGradient2893">
      <stop
         style="stop-color:#ffffff;stop-opacity:0.3137255;"
         offset="0"
         id="stop2895" />
      <stop
         id="stop2897"
         offset="0.19"
         style="stop-color:#ffffff;stop-opacity:0.25098041;" />
      <stop
         style="stop-color:#6b6b6b;stop-opacity:0.1254902;"
         offset="0.60000002"
         id="stop2901" />
      <stop
         style="stop-color:#000000;stop-opacity:0.1254902;"
         offset="1"
         id="stop2899" />
    </linearGradient>
    <linearGradient
       id="linearGradient2955">
      <stop
         style="stop-color:white;stop-opacity:0;"
         offset="0"
         id="stop2965" />
      <stop
         style="stop-color:black;stop-opacity:0.64583331;"
         offset="1"
         id="stop2959" />
    </linearGradient>
    <radialGradient
       inkscape:collect="always"
       xlink:href="#linearGradient2893"
       id="radialGradient3236"
       gradientUnits="userSpaceOnUse"
       gradientTransform="matrix(1.215027,1.531577e-24,1.464684e-23,1.266667,-839.1924,-490.4894)"
       cx="858.04236"
       cy="579.93323"
       fx="858.04236"
       fy="579.93323"
       r="300" />
  </defs>
  <sodipodi:namedview
     inkscape:window-height="682"
     inkscape:window-width="1024"
     inkscape:pageshadow="2"
     inkscape:pageopacity="0.0"
     guidetolerance="10.0"
     gridtolerance="10.0"
     objecttolerance="10.0"
     borderopacity="1.0"
     bordercolor="#666666"
     pagecolor="#ffffff"
     id="base"
     inkscape:zoom="0.48301887"
     inkscape:cx="335.06248"
     inkscape:cy="338.56548"
     inkscape:window-x="-4"
     inkscape:window-y="-4"
     inkscape:current-layer="layer2"
     showgrid="true" />
  <desc
     id="desc22">Coat of Arms of Canton of Freiburg (Fribourg)</desc>
  <g
     inkscape:groupmode="layer"
     id="layer1"
     inkscape:label="Fond écu"
     sodipodi:insensitive="true">
    <path
       id="path1899"
       d="M 1.5,1.49998 L 1.5,460.3679 C 1.5,626.6785 135.81456,761.5 301.49999,761.5 C 467.18543,761.5 601.5,626.6785 601.5,460.3679 L 601.5,1.49998 L 1.5,1.49998 z "
       style="fill:#2b5df2;fill-opacity:1" />
  </g>
  <g
     inkscape:groupmode="layer"
     id="layer2"
     inkscape:label="Meubles">
    <g
       id="g7558"
       inkscape:label="Capa 1"
       transform="translate(72.15932,502.2247)">
      <g
         id="g31937"
         transform="matrix(1.30962,0,0,1.196502,-164.3179,-651.8653)">
        <path
           id="path4760"
           transform="matrix(0.76358,0,0,0.83577,70.91788,125.3074)"
           d="M 300,524.125 C 233.13475,524.12494 214.96529,579.57808 223.21875,616.53125 C 223.21876,616.53124 164.62954,569.78067 116.75,620.3125 C 98.669048,639.39502 94.105164,660.58746 97.34375,681 C 147.86884,728.12867 214.5964,757.96736 288.21875,761.1875 C 292.13676,761.29362 296.05389,761.34375 300,761.34375 C 306.43736,761.34375 312.85752,761.21863 319.21875,760.9375 C 320.00212,760.90288 320.78035,760.85133 321.5625,760.8125 C 390.78928,756.2245 453.59246,728.08953 502.09375,684.28125 C 506.3745,662.86569 502.33522,640.42197 483.28125,620.3125 C 435.40492,569.78065 376.78125,616.53125 376.78125,616.53125 C 385.038,579.57807 366.86185,524.125 300,524.125 z "
           style="opacity:1;fill:#5ab532;fill-opacity:1;stroke:black;stroke-width:2.19686413;stroke-miterlimit:4;stroke-dasharray:none;stroke-opacity:1" />
        <path
           sodipodi:nodetypes="ccc"
           style="opacity:1;fill:none;stroke:black;stroke-width:2.19686317;stroke-linecap:round;stroke-linejoin:round"
           i:knockout="Off"
           d="M 301.23058,761.60806 C 310.74058,751.5855 337.1871,727.80244 352.3711,675.01861 C 358.97424,642.61462 364.9089,616.59172 351.5951,591.92333"
           id="path2005" />
        <path
           sodipodi:nodetypes="csc"
           style="opacity:1;fill:none;stroke:black;stroke-width:2.19686317;stroke-linecap:round;stroke-linejoin:round"
           i:knockout="Off"
           d="M 298.19869,761.60806 C 288.68869,751.5855 260.87346,728.31474 247.5991,675.01861 C 238.79907,639.68675 237.2572,611.46796 248.3751,591.92333"
           id="path2003" />
      </g>
    </g>
    <path
       sodipodi:type="star"
       style="opacity:1;fill:#fcef3c;fill-opacity:1;fill-rule:evenodd;stroke:black;stroke-width:1.82629883;stroke-linecap:round;stroke-linejoin:round;stroke-miterlimit:4;stroke-dasharray:none;stroke-opacity:1"
       id="path7564"
       sodipodi:sides="6"
       sodipodi:cx="196.67969"
       sodipodi:cy="206.08594"
       sodipodi:r1="156.97557"
       sodipodi:r2="78.487785"
       sodipodi:arg1="0.72007069"
       sodipodi:arg2="1.2436695"
       inkscape:flatsided="false"
       inkscape:rounded="0"
       inkscape:randomized="0"
       d="M 314.6875,309.60156 L 221.89966,280.41147 L 166.03643,360.04152 L 144.92187,265.08984 L 48.028616,256.52589 L 119.7019,190.76431 L 78.671871,102.57031 L 171.45971,131.7604 L 227.32294,52.130357 L 248.4375,147.08203 L 345.33076,155.64598 L 273.65748,221.40757 L 314.6875,309.60156 z "
       transform="matrix(1.610717,-0.322925,0.322877,1.610518,-83.33571,1.9768)" />
  </g>
  <g
     inkscape:groupmode="layer"
     id="layer3"
     inkscape:label="Reflet final"
     style="display:inline"
     sodipodi:insensitive="true">
    <path
       style="fill:url(#radialGradient3236);fill-opacity:1"
       d="M 1.5,1.5 L 1.5,460.3679 C 1.5,626.67854 135.81454,761.5 301.49993,761.5 C 467.1854,761.5 601.5,626.67854 601.5,460.3679 L 601.5,1.5 L 1.5,1.5 z "
       id="path2346" />
  </g>
  <g
     inkscape:groupmode="layer"
     id="layer4"
     inkscape:label="Contour final"
     style="display:inline"
     sodipodi:insensitive="true">
    <path
       style="fill:none;fill-opacity:1;stroke:#000000;stroke-width:3;stroke-miterlimit:4;stroke-dasharray:none;stroke-opacity:1"
       d="M 1.5,1.5 L 1.5,460.36794 C 1.5,626.67854 135.81454,761.5 301.49993,761.5 C 467.1854,761.5 601.5,626.67854 601.5,460.36794 L 601.5,1.5 L 1.5,1.5 z "
       id="path3239" />
  </g>
</svg>

<svg xmlns="http://www.w3.org/2000/svg" xmlns:xlink="http://www.w3.org/1999/xlink" height="763" width="603" version="1.0"><defs><radialGradient xlink:href="#a" id="b" gradientUnits="userSpaceOnUse" gradientTransform="matrix(1.21503 0 0 1.26667 -839.192 -490.49)" cx="858.042" cy="579.933" fx="858.042" fy="579.933" r="300"/><linearGradient id="a"><stop style="stop-color:#fff;stop-opacity:.3137255" offset="0"/><stop offset=".19" style="stop-color:#fff;stop-opacity:.25098041"/><stop style="stop-color:#6b6b6b;stop-opacity:.1254902" offset=".6"/><stop style="stop-color:#000;stop-opacity:.1254902" offset="1"/></linearGradient></defs><path d="M1.5 1.5v458.868c0 166.31 134.315 301.132 300 301.132s300-134.822 300-301.132V1.5H1.5z" style="fill:#2b5df2;fill-opacity:1"/><path transform="matrix(1 0 0 1 .717 .29)" d="M300 524.125c-66.865 0-85.035 55.453-76.781 92.406 0 0-58.59-46.75-106.469 3.782C98.669 639.394 94.105 660.587 97.344 681c50.525 47.129 117.252 76.967 190.875 80.188 3.918.106 7.835.156 11.781.156 6.437 0 12.858-.125 19.219-.407.783-.034 1.561-.086 2.344-.125 69.226-4.587 132.03-32.722 180.53-76.53 4.281-21.416.242-43.86-18.812-63.97-47.876-50.531-106.5-3.78-106.5-3.78 8.257-36.954-9.92-92.407-76.781-92.407z" style="opacity:1;fill:#5ab532;fill-opacity:1;stroke:#000;stroke-width:2.19686413;stroke-miterlimit:4;stroke-dasharray:none;stroke-opacity:1"/><path style="opacity:1;fill:none;stroke:#000;stroke-width:2.19686317;stroke-linecap:round;stroke-linejoin:round" d="M301.23 761.608c9.51-10.022 35.957-33.806 51.141-86.59 6.603-32.403 12.538-58.426-.776-83.095M298.199 761.608c-9.51-10.022-37.326-33.293-50.6-86.59-8.8-35.331-10.342-63.55.776-83.095" transform="matrix(1.30962 0 0 1.1965 -92.159 -149.64)"/><path style="opacity:1;fill:#fcef3c;fill-opacity:1;fill-rule:evenodd;stroke:#000;stroke-width:1.82629883;stroke-linecap:round;stroke-linejoin:round;stroke-miterlimit:4;stroke-dasharray:none;stroke-opacity:1" d="m314.688 309.602-92.788-29.19-55.864 79.63-21.114-94.952-96.893-8.564 71.673-65.762-41.03-88.194 92.788 29.19 55.863-79.63 21.114 94.952 96.894 8.564-71.674 65.762 41.03 88.194z" transform="matrix(1.61072 -.32293 .32288 1.61052 -83.336 1.977)"/><g style="display:inline"><path style="fill:url(#b);fill-opacity:1" d="M1.5 1.5v458.868c0 166.31 134.315 301.132 300 301.132s300-134.821 300-301.132V1.5H1.5z"/></g><g style="display:inline"><path style="fill:none;fill-opacity:1;stroke:#000;stroke-width:3;stroke-miterlimit:4;stroke-dasharray:none;stroke-opacity:1" d="M1.5 1.5v458.868c0 166.31 134.315 301.132 300 301.132s300-134.821 300-301.132V1.5H1.5z"/></g></svg>
